X:67
T:I'll kiss the bonny lassie oh!
T:Air m'fhalluinn bheirinn pog dhi
R:Reel
S:Simon Fraser Collection
N:No.145
O:Scottish
M:C
L:1/8
K:E_
c|B(GG)F EFGc|BGeG cFFc|B(GG)F EFGf|(gf)ed e2 dc|B(GG)F EFGc|
BGeG cFFc|BGGF EFGf|(gf)ed (e2e)||g|egge dffd|egge fdBd|egge dffd|
cafd e2 eg|egeg dfdf|egeg fdBg|agfe dcBA|Ggfd e2 (dc)||

